src/status/24/network-wired-acquiring-symbolic.svg

<?xml version="1.0" encoding="UTF-8" standalone="no"?>
<svg
   xmlns:dc="http://purl.org/dc/elements/1.1/"
   xmlns:cc="http://creativecommons.org/ns#"
   xmlns:rdf="http://www.w3.org/1999/02/22-rdf-syntax-ns#"
   xmlns:svg="http://www.w3.org/2000/svg"
   xmlns="http://www.w3.org/2000/svg"
   id="svg8"
   version="1.1"
   width="24"
   height="24">
  <metadata
     id="metadata14">
    <rdf:RDF>
      <cc:Work
         rdf:about="">
        <dc:format>image/svg+xml</dc:format>
        <dc:type
           rdf:resource="http://purl.org/dc/dcmitype/StillImage" />
        <dc:title></dc:title>
      </cc:Work>
    </rdf:RDF>
  </metadata>
  <defs
     id="defs12" />
  <path
     d="m 9,11 a 1,1 0 1 0 0,2 1,1 0 0 0 0,-2 z m 3,0 a 1,1 0 1 0 0,2 1,1 0 0 0 0,-2 z m 3,0 a 1,1 0 1 0 0,2 1,1 0 0 0 0,-2 z"
     id="path4"
     style="opacity:1;vector-effect:none;fill:#ffffff;fill-opacity:1;stroke-width:1;stroke-linecap:butt;stroke-linejoin:miter;stroke-miterlimit:4;stroke-dasharray:none;stroke-dashoffset:0;stroke-opacity:1" />
  <path
     id="path1088"
     d="M 6.0019531 7 A 1 1 0 0 0 5.1484375 7.4746094 L 2.2539062 11.335938 A 1 1 0 0 0 2 11.998047 A 1 1 0 0 0 2.2050781 12.605469 A 1 1 0 0 0 2.234375 12.642578 L 5.171875 16.560547 A 1 1 0 0 0 5.9980469 17 A 1 1 0 0 0 7 16.001953 A 1 1 0 0 0 6.8027344 15.40625 L 6.8046875 15.404297 L 4.2539062 12.001953 L 6.8046875 8.5996094 L 6.8007812 8.5976562 A 1 1 0 0 0 7 8.0019531 A 1 1 0 0 0 6.0019531 7 z M 17.998047 7 A 1 1 0 0 0 17 8.0019531 A 1 1 0 0 0 17.199219 8.5976562 L 17.195312 8.5996094 L 19.746094 12.001953 L 17.195312 15.404297 L 17.197266 15.40625 A 1 1 0 0 0 17 16.001953 A 1 1 0 0 0 18.001953 17 A 1 1 0 0 0 18.828125 16.560547 L 21.765625 12.642578 A 1 1 0 0 0 21.794922 12.605469 A 1 1 0 0 0 22 11.998047 A 1 1 0 0 0 21.746094 11.335938 L 18.851562 7.4746094 A 1 1 0 0 0 17.998047 7 z "
     style="opacity:0.35;vector-effect:none;fill:#ffffff;fill-opacity:1;stroke:none;stroke-width:1;stroke-linecap:butt;stroke-linejoin:miter;stroke-miterlimit:4;stroke-dasharray:none;stroke-dashoffset:0;stroke-opacity:1;marker:none;paint-order:normal;font-variant-east_asian:normal" />
</svg>

<?xml version="1.0" encoding="UTF-8"?>
<svg id="svg8" width="24" height="24" version="1.1" xmlns="http://www.w3.org/2000/svg" xmlns:cc="http://creativecommons.org/ns#" xmlns:dc="http://purl.org/dc/elements/1.1/" xmlns:rdf="http://www.w3.org/1999/02/22-rdf-syntax-ns#">
 <metadata id="metadata14">
  <rdf:RDF>
   <cc:Work rdf:about="">
    <dc:format>image/svg+xml</dc:format>
    <dc:type rdf:resource="http://purl.org/dc/dcmitype/StillImage"/>
    <dc:title/>
   </cc:Work>
  </rdf:RDF>
 </metadata>
 <path id="path4" d="m9 11a1 1 0 1 0 0 2 1 1 0 0 0 0-2zm3 0a1 1 0 1 0 0 2 1 1 0 0 0 0-2zm3 0a1 1 0 1 0 0 2 1 1 0 0 0 0-2z" fill="#fff"/>
 <path id="path1088" d="m6.002 7a1 1 0 0 0-0.85352 0.47461l-2.8945 3.8613a1 1 0 0 0-0.25391 0.66211 1 1 0 0 0 0.20508 0.60742 1 1 0 0 0 0.029297 0.037109l2.9375 3.918a1 1 0 0 0 0.82617 0.43945 1 1 0 0 0 1.002-0.99805 1 1 0 0 0-0.19727-0.5957l0.0019531-0.001953-2.5508-3.4023 2.5508-3.4023-0.0039063-0.0019532a1 1 0 0 0 0.19922-0.5957 1 1 0 0 0-0.99805-1.002zm11.996 0a1 1 0 0 0-0.99805 1.002 1 1 0 0 0 0.19922 0.5957l-0.003907 0.0019532 2.5508 3.4023-2.5508 3.4023 0.001954 0.001953a1 1 0 0 0-0.19727 0.5957 1 1 0 0 0 1.002 0.99805 1 1 0 0 0 0.82617-0.43945l2.9375-3.918a1 1 0 0 0 0.029297-0.037109 1 1 0 0 0 0.20508-0.60742 1 1 0 0 0-0.25391-0.66211l-2.8945-3.8613a1 1 0 0 0-0.85352-0.47461z" fill="#fff" opacity=".35" style="font-variant-east_asian:normal;paint-order:normal"/>
</svg>
